_includes/icons/color-sick.svg

<svg fill="#666" height="50" viewBox="0 0 48 48" width="50" xmlns="http://www.w3.org/2000/svg"><path d="m32 14.5c0 .828125-.671875 1.5-1.5 1.5s-1.5-.671875-1.5-1.5.671875-1.5 1.5-1.5 1.5.671875 1.5 1.5" fill="#ffa726"/><path d="m19 14.5c0 .828125-.671875 1.5-1.5 1.5s-1.5-.671875-1.5-1.5.671875-1.5 1.5-1.5 1.5.671875 1.5 1.5" fill="#ffa726"/><path d="m36 29s-3.320312-7-12-7c-8.679687 0-12 7-12 7-2 3-4 10.34375-4 12s1.34375 3 3 3h25c1.65625 0 3-1.34375 3-3s-1-7-3-12z" fill="#558b2f"/><path d="m27.949219 22.53125-.828125 2.074219-17.007813 19.246094c.28125.085937.574219.148437.886719.148437h17l2.265625-20.566406c-1.03125-.574219-2.316406-.902344-2.316406-.902344z" fill="#bbdefb"/><path d="m8 41c0 1.65625 1.34375 3 3 3h17l-7.976562-21.648437c-9.910157 1.992187-12.023438 16.929687-12.023438 18.648437z" fill="#bbdefb"/><path d="m27.921875 38-3.71875-10.089844-1.503906 1.699219 5.300781 14.390625-2.210937-6z" fill="#64b5f6"/><path d="m24 26c-4 0-4-4-4-4v-4h8v4s0 4-4 4z" fill="#ff9800"/><path d="m29 38h-3.210937l2.210937 6h1c1.65625 0 3-1.34375 3-3s-1.34375-3-3-3z" fill="#ffb74d"/><path d="m31 10.679688c0-5.878907-14-3.828125-14 0v4.390625c0 3.824218 3.132813 6.929687 7 6.929687 3.867188 0 7-3.105469 7-6.929687z" fill="#ffb74d"/><path d="m24 3c-4.859375 0-8 4.3125-8 8.171875v1.828125l2 2v-4l9.199219-3 2.800781 3v4l2-2v-.808594c0-3.21875-.828125-6.804687-4.800781-7.59375l-.800781-1.597656z" fill="#424242"/><g fill="#784719"><path d="m26 14c0 .550781.449219 1 1 1s1-.449219 1-1-.449219-1-1-1-1 .449219-1 1"/><path d="m20 14c0 .550781.449219 1 1 1s1-.449219 1-1-.449219-1-1-1-1 .449219-1 1"/></g></svg>

<svg xmlns="http://www.w3.org/2000/svg" viewBox="0 0 48 48" width="50" height="50" fill="#666"><path d="M 32 14.5 C 32 15.328125 31.328125 16 30.5 16 C 29.671875 16 29 15.328125 29 14.5 C 29 13.671875 29.671875 13 30.5 13 C 31.328125 13 32 13.671875 32 14.5" fill="#ffa726"/><path d="M 19 14.5 C 19 15.328125 18.328125 16 17.5 16 C 16.671875 16 16 15.328125 16 14.5 C 16 13.671875 16.671875 13 17.5 13 C 18.328125 13 19 13.671875 19 14.5" fill="#ffa726"/><path d="M 36 29 C 36 29 32.679688 22 24 22 C 15.320313 22 12 29 12 29 C 10 32 8 39.34375 8 41 C 8 42.65625 9.34375 44 11 44 L 36 44 C 37.65625 44 39 42.65625 39 41 C 39 39.34375 38 34 36 29 Z" fill="#558b2f"/><path d="M 27.949219 22.53125 L 27.121094 24.605469 L 10.113281 43.851563 C 10.394531 43.9375 10.6875 44 11 44 L 28 44 L 30.265625 23.433594 C 29.234375 22.859375 27.949219 22.53125 27.949219 22.53125 Z" fill="#bbdefb"/><path d="M 8 41 C 8 42.65625 9.34375 44 11 44 L 28 44 L 20.023438 22.351563 C 10.113281 24.34375 8 39.28125 8 41 Z" fill="#bbdefb"/><path d="M 27.921875 38 L 24.203125 27.910156 L 22.699219 29.609375 L 28 44 L 25.789063 38 Z" fill="#64b5f6"/><path d="M 24 26 C 20 26 20 22 20 22 L 20 18 L 28 18 L 28 22 C 28 22 28 26 24 26 Z" fill="#ff9800"/><path d="M 29 38 L 25.789063 38 L 28 44 L 29 44 C 30.65625 44 32 42.65625 32 41 C 32 39.34375 30.65625 38 29 38 Z" fill="#ffb74d"/><path d="M 31 10.679688 C 31 4.800781 17 6.851563 17 10.679688 L 17 15.070313 C 17 18.894531 20.132813 22 24 22 C 27.867188 22 31 18.894531 31 15.070313 Z" fill="#ffb74d"/><path d="M 24 3 C 19.140625 3 16 7.3125 16 11.171875 L 16 13 L 18 15 L 18 11 L 27.199219 8 L 30 11 L 30 15 L 32 13 L 32 12.191406 C 32 8.972656 31.171875 5.386719 27.199219 4.597656 L 26.398438 3 Z" fill="#424242"/><path d="M 26 14 C 26 14.550781 26.449219 15 27 15 C 27.550781 15 28 14.550781 28 14 C 28 13.449219 27.550781 13 27 13 C 26.449219 13 26 13.449219 26 14" fill="#784719"/><path d="M 20 14 C 20 14.550781 20.449219 15 21 15 C 21.550781 15 22 14.550781 22 14 C 22 13.449219 21.550781 13 21 13 C 20.449219 13 20 13.449219 20 14" fill="#784719"/></svg>
